X:1
T: The Eighth of December
C:Miss H. Baird
R:Reel
Q: 232
K:D
M:4/4
L:1/8
|:A|FA AF GB Bd|ce ec df fa|AA AF GB Bd|cd ef d2 DA|
FA AF GB Bd|ce ec df fa|AA AF GB Bd|cd ef d2 Df|
ad d2 ge eg|fd cd e1/2d1/2c1/2B1/2 A2|af fa ge eg|fd ec d2 Df|
ad d2 ge eg|fd cd e1/2d1/2c1/2B1/2 A2|af fa be eg|fd ec d2 D:|
